assets/icons/24px/outline/moon-24px.svg

<svg width="24" height="24" viewBox="0 0 24 24" fill="none" xmlns="http://www.w3.org/2000/svg">
<path d="M20.22 12.6832L20.9532 13.3633L20.9532 13.3633L20.22 12.6832ZM11.3168 3.78L11.9968 4.51317L11.9968 4.51317L11.3168 3.78ZM11.1 3.04444L11.0012 2.04933L11.0012 2.04933L11.1 3.04444ZM12.0544 3.1917L12.6179 4.01783L12.0544 3.1917ZM20.8083 11.9456L19.9822 11.3821L20.8083 11.9456ZM19.9822 11.3821C19.8326 11.6014 19.6669 11.809 19.4868 12.0032L20.9532 13.3633C21.2007 13.0964 21.4286 12.8109 21.6344 12.5091L19.9822 11.3821ZM19.4868 12.0032C18.5175 13.0482 17.1356 13.7 15.6 13.7V15.7C17.7151 15.7 19.6213 14.7992 20.9532 13.3633L19.4868 12.0032ZM15.6 13.7C12.6729 13.7 10.3 11.3271 10.3 8.4H8.3C8.3 12.4317 11.5683 15.7 15.6 15.7V13.7ZM10.3 8.4C10.3 6.86435 10.9518 5.48246 11.9968 4.51317L10.6367 3.04683C9.2008 4.37871 8.3 6.28492 8.3 8.4H10.3ZM11.9968 4.51317C12.191 4.33308 12.3986 4.16741 12.6179 4.01783L11.4909 2.36557C11.1891 2.57144 10.9036 2.7993 10.6367 3.04683L11.9968 4.51317ZM11.1988 4.03955C11.462 4.01341 11.7293 4 12 4V2C11.6632 2 11.33 2.01669 11.0012 2.04933L11.1988 4.03955ZM4 12C4 7.85232 7.15721 4.44082 11.1988 4.03954L11.0012 2.04933C5.94681 2.55116 2 6.81405 2 12H4ZM12 20C7.58172 20 4 16.4183 4 12H2C2 17.5228 6.47715 22 12 22V20ZM20 12C20 16.4183 16.4183 20 12 20V22C17.5228 22 22 17.5228 22 12H20ZM12.6179 4.01783C13.0566 3.71856 13.1723 3.20724 13.06 2.80526C12.9454 2.39496 12.5614 2 12 2V4C11.5405 4 11.2257 3.67221 11.1338 3.34341C11.0443 3.02294 11.1363 2.60747 11.4909 2.36557L12.6179 4.01783ZM21.6344 12.5091C21.3925 12.8638 20.9771 12.9557 20.6566 12.8662C20.3278 12.7744 20 12.4596 20 12H22C22 11.4386 21.605 11.0546 21.1947 10.94C20.7928 10.8277 20.2814 10.9434 19.9822 11.3821L21.6344 12.5091Z" fill="white"/>
</svg>

<svg width="24" height="24" fill="none" xmlns="http://www.w3.org/2000/svg"><path d="M20.22 12.683l.733.68-.733-.68zM11.317 3.78l.68.733-.68-.733zm-.217-.736l-.099-.995.099.995zm.954.148l.564.826-.564-.826zm8.754 8.754l-.826-.564.826.564zm-.826-.564c-.15.22-.315.427-.495.621l1.466 1.36a7.33 7.33 0 0 0 .681-.854l-1.652-1.127zm-.495.621A5.283 5.283 0 0 1 15.6 13.7v2c2.115 0 4.021-.9 5.353-2.337l-1.466-1.36zM15.6 13.7a5.3 5.3 0 0 1-5.3-5.3h-2a7.3 7.3 0 0 0 7.3 7.3v-2zm-5.3-5.3c0-1.536.652-2.918 1.697-3.887l-1.36-1.466A7.283 7.283 0 0 0 8.3 8.4h2zm1.697-3.887c.194-.18.402-.346.62-.495l-1.126-1.652a7.334 7.334 0 0 0-.854.68l1.36 1.467zm-.798-.473c.263-.027.53-.04.801-.04V2c-.337 0-.67.017-.999.05l.198 1.99zM4 12a8.001 8.001 0 0 1 7.199-7.96L11 2.05C5.947 2.55 2 6.813 2 12h2zm8 8a8 8 0 0 1-8-8H2c0 5.523 4.477 10 10 10v-2zm8-8a8 8 0 0 1-8 8v2c5.523 0 10-4.477 10-10h-2zm-7.382-7.982A1.106 1.106 0 0 0 12 2v2a.895.895 0 1 1-.51-1.634l1.128 1.652zm9.016 8.491A.894.894 0 0 1 20 12h2a1.106 1.106 0 1 0-2.018-.618l1.652 1.127z" fill="#fff"/></svg>
